src/svgs/multilingual-icon.svg

<svg width="40" height="30" viewBox="0 0 40 30" fill="none" xmlns="http://www.w3.org/2000/svg">
<g clip-path="url(#clip0)">
<path d="M18.7251 29.0884C18.7251 29.5469 14.5281 29.5957 9.36256 29.9185C4.20183 30.2411 0 29.5469 0 29.0884C0 28.6299 4.22119 27.7073 9.36256 28.2582C14.5281 28.8116 18.7251 28.6299 18.7251 29.0884Z" fill="#E6E6E6"/>
<path d="M38.4668 5.00151e-05H27.3694C26.8339 4.9433e-05 26.3143 0.182244 25.8961 0.516684C25.4778 0.851125 25.1858 1.31791 25.0681 1.84031L19.4607 26.7119C19.3996 26.9831 19.3985 27.2645 19.4576 27.5363C19.5167 27.808 19.6345 28.0635 19.8028 28.2849C19.971 28.5063 20.1857 28.6882 20.4317 28.8179C20.6777 28.9476 20.9491 29.0219 21.2269 29.0355L32.6351 29.5976C33.246 29.6277 33.847 29.4345 34.3259 29.0541C34.8048 28.6737 35.1289 28.132 35.2378 27.5301L38.4186 9.94567L38.6552 10.0133L39.2638 6.68037L39.0202 6.61947L39.9081 1.71102C39.9461 1.50078 39.9373 1.28474 39.8823 1.0783C39.8272 0.87186 39.7273 0.680105 39.5897 0.516703C39.452 0.353302 39.28 0.222279 39.086 0.132974C38.8919 0.0436698 38.6805 -0.00171699 38.4668 4.96632e-05L38.4668 5.00151e-05Z" fill="#3F3D56"/>
<path d="M28.8308 0.535157H27.5354C27.1634 0.535157 26.8026 0.662387 26.5128 0.895726C26.2231 1.12906 26.0219 1.45448 25.9426 1.81794L20.5603 26.4866C20.5293 26.6286 20.5294 26.7756 20.5604 26.9177C20.5915 27.0597 20.6528 27.1933 20.7402 27.3095C20.8276 27.4256 20.9391 27.5215 21.067 27.5906C21.1949 27.6597 21.3362 27.7004 21.4812 27.7099L32.8526 28.4552C33.1734 28.4762 33.4907 28.3784 33.744 28.1804C33.9972 27.9824 34.1687 27.698 34.2257 27.3816L38.8184 1.8842C38.8481 1.71917 38.8413 1.54963 38.7983 1.38754C38.7554 1.22545 38.6774 1.07476 38.5698 0.946107C38.4623 0.817454 38.3278 0.713973 38.1759 0.642966C38.024 0.571959 37.8583 0.535157 37.6907 0.535157H36.4618C36.3428 0.535157 36.2272 0.574367 36.1328 0.646716C36.0384 0.719065 35.9705 0.820518 35.9396 0.935368V0.935368C35.9123 1.03676 35.8523 1.12633 35.769 1.1902C35.6856 1.25407 35.5835 1.28868 35.4785 1.28868H29.6445C29.4389 1.28868 29.2409 1.21107 29.09 1.07137C28.9392 0.931665 28.8466 0.740164 28.8308 0.535156V0.535157Z" fill="white"/>
<path d="M16.6582 13.225L17.6608 15.2099L20.6587 16.5728C20.9789 17.1139 21.9962 17.1553 22.0702 16.8054C22.1532 16.4129 20.8348 15.7811 20.8348 15.7811L18.3273 14.0851L18.1079 12.625L16.6582 13.225Z" fill="#A0616A"/>
<path d="M16.7767 26.5449L16.5918 28.0242L17.6642 28.0981L17.7752 26.5449H16.7767Z" fill="#A0616A"/>
<path d="M16.9255 27.8021C16.8296 27.7007 16.7412 27.5925 16.6609 27.4784C16.5072 27.2657 16.3708 28.3568 16.3708 28.3568C16.3708 28.3568 16.2229 28.8006 16.2598 29.0224C16.2968 29.2443 17.1474 29.2443 17.2953 29.2073C17.4432 29.1704 18.1829 29.2073 18.1829 29.2073H19.2923C20.2538 28.7636 19.2923 28.4677 19.2923 28.4677C18.9964 28.4307 17.9979 27.5062 17.9979 27.5062L17.7761 27.0994C17.6281 27.0624 17.4802 27.6172 17.4802 27.6172L16.9255 27.8021Z" fill="#2F2E41"/>
<path d="M14.0033 26.5625L13.8184 28.0417L14.8908 28.1157L15.0018 26.5625H14.0033Z" fill="#A0616A"/>
<path d="M14.1521 27.8216C14.0562 27.7202 13.9677 27.612 13.8874 27.498C13.7337 27.2853 13.5973 28.3763 13.5973 28.3763C13.5973 28.3763 13.4494 28.7831 13.4864 29.005C13.5234 29.2269 14.3739 29.2269 14.5219 29.1899C14.6698 29.1529 15.4094 29.2269 15.4094 29.2269H16.5188C17.4803 28.7831 16.5188 28.4872 16.5188 28.4872C16.223 28.4503 15.2245 27.5257 15.2245 27.5257L15.0026 27.119C14.8547 27.082 14.7068 27.6367 14.7068 27.6367L14.1521 27.8216Z" fill="#2F2E41"/>
<path d="M15.2235 17.0236C15.0756 17.2085 15.1495 17.8372 15.1495 17.8372C15.1495 17.8372 14.8907 19.8711 15.0016 20.056C15.1126 20.2409 14.9277 20.3889 14.8167 20.6477C14.7058 20.9066 14.5948 21.5353 14.5948 21.5353C13.9662 22.053 14.0031 24.4198 14.0031 24.4198L13.7812 26.5277C13.8552 26.7496 14.8907 26.7865 15.0386 26.7496C15.1865 26.7126 15.6303 23.3843 15.6303 23.3843L16.6288 21.4983C16.6288 21.4983 16.5548 26.5277 16.5548 26.7496C16.5548 26.9714 17.5533 26.8605 17.7752 26.8605C17.9971 26.8605 17.9971 23.1624 17.9971 23.1624L18.2189 22.2009L19.4023 17.8002V17.2825L19.2174 17.0236C19.2174 17.0236 15.3714 16.8387 15.2235 17.0236Z" fill="#2F2E41"/>
<path d="M16.8515 8.62875C17.4846 8.62875 17.9979 8.11548 17.9979 7.48234C17.9979 6.8492 17.4846 6.33594 16.8515 6.33594C16.2183 6.33594 15.7051 6.8492 15.7051 7.48234C15.7051 8.11548 16.2183 8.62875 16.8515 8.62875Z" fill="#A0616A"/>
<path d="M17.4244 8.01953C17.192 8.53698 17.3296 9.25974 17.7942 10.0535L15.9082 9.16594L16.2041 8.90707L16.1301 8.16745L17.4244 8.01953Z" fill="#A0616A"/>
<path d="M17.4234 9.2021C17.6704 9.34893 17.8182 9.61871 17.903 9.89323C18.06 10.4015 18.1545 10.927 18.1844 11.4581L18.274 13.0481L19.3834 17.2639C18.4219 18.0775 17.8672 17.8926 16.5729 17.2269C15.2786 16.5613 15.1306 17.4488 15.1306 17.4488C15.1306 17.4488 15.0197 17.4118 15.1306 17.3009C15.2416 17.19 15.1306 17.3009 15.0197 17.19C14.9087 17.079 15.0197 17.19 15.0567 17.079C15.0936 16.9681 15.0567 17.042 15.0197 17.005C14.9827 16.9681 15.1676 16.6352 15.1676 16.6352L14.8718 13.8617L14.502 9.94171C14.9457 9.387 16.2031 8.90625 16.2031 8.90625L17.3495 9.71982C17.7193 9.86775 17.4234 9.27605 17.4234 9.27605L17.4234 9.2021Z" fill="#6C63FF"/>
<path d="M13.8921 12.2891L13.7441 14.5079L15.6302 17.2075C15.6302 17.8362 15.963 17.9841 15.963 17.9841C16.089 17.7829 16.2003 17.5728 16.2958 17.3554C16.4807 16.9486 16.1849 16.6158 16.1849 16.6158L14.8905 13.8792L15.4453 12.511L13.8921 12.2891Z" fill="#A0616A"/>
<path d="M14.5209 9.95908C13.8922 10.181 13.7812 12.5847 13.7812 12.5847C14.5209 12.1779 15.4084 12.8436 15.4084 12.8436C15.4084 12.8436 15.5933 12.2149 15.8152 11.4013C15.8822 11.1725 15.8902 10.9304 15.8385 10.6976C15.7867 10.4649 15.677 10.249 15.5193 10.07C15.5193 10.07 15.1495 9.7372 14.5209 9.95908Z" fill="#6C63FF"/>
<path d="M15.7966 7.83345C15.9426 7.7167 16.1417 7.92892 16.1417 7.92892L16.2584 6.87813C16.2584 6.87813 16.9881 6.9657 17.4551 6.84895C17.9221 6.73219 17.9951 7.27218 17.9951 7.27218C18.0192 7.05411 18.0241 6.83436 18.0097 6.61544C17.9805 6.35274 17.6011 6.09004 16.9297 5.91491C16.2584 5.73978 15.9081 6.49868 15.9081 6.49868C15.4411 6.73219 15.6507 7.95021 15.7966 7.83345Z" fill="#2F2E41"/>
<path d="M35.2831 17.7821C35.3054 17.783 35.3272 17.7758 35.3447 17.762C35.3622 17.7481 35.3741 17.7285 35.3783 17.7066L37.9282 3.82803C37.9306 3.81482 37.9301 3.80124 37.9267 3.78824C37.9234 3.77523 37.9172 3.76312 37.9087 3.75275C37.9001 3.74238 37.8894 3.73399 37.8773 3.72819C37.8652 3.72238 37.852 3.71929 37.8385 3.71913L26.2379 3.58398H26.2368C26.2159 3.58406 26.1956 3.59123 26.1792 3.60431C26.1629 3.6174 26.1514 3.63563 26.1468 3.65605L23.1409 17.0842C23.138 17.0973 23.1379 17.1109 23.1408 17.124C23.1437 17.1371 23.1494 17.1495 23.1575 17.1602C23.1657 17.1709 23.1761 17.1796 23.188 17.1859C23.1999 17.1922 23.213 17.1957 23.2264 17.1964L35.2831 17.7821Z" fill="#E6E6E6"/>
<path d="M25.1883 18.668C25.1779 18.668 25.1678 18.6715 25.1597 18.678C25.1515 18.6845 25.1458 18.6935 25.1435 18.7036L25.0364 19.1628C25.0348 19.1693 25.0348 19.1761 25.0361 19.1826C25.0375 19.1891 25.0402 19.1953 25.0442 19.2007C25.0481 19.206 25.0532 19.2105 25.059 19.2137C25.0649 19.2169 25.0713 19.2188 25.078 19.2193L31.1305 19.6495C31.1417 19.6502 31.1528 19.6468 31.1617 19.64C31.1706 19.6331 31.1768 19.6233 31.179 19.6123L31.2821 19.081C31.2833 19.0746 31.2832 19.0679 31.2817 19.0615C31.2801 19.0551 31.2773 19.0492 31.2732 19.044C31.2692 19.0388 31.2641 19.0345 31.2583 19.0314C31.2525 19.0284 31.2461 19.0266 31.2395 19.0262L25.1911 18.6681C25.1902 18.668 25.1893 18.668 25.1883 18.668Z" fill="#E6E6E6"/>
<path d="M32.5406 21.3565C32.5515 21.3573 32.5623 21.3543 32.5712 21.3479C32.5801 21.3415 32.5864 21.3321 32.589 21.3215L32.7202 20.7892C32.7218 20.7826 32.7219 20.7758 32.7206 20.7692C32.7193 20.7626 32.7166 20.7564 32.7126 20.751C32.7087 20.7455 32.7036 20.741 32.6977 20.7378C32.6918 20.7345 32.6853 20.7326 32.6786 20.7321L24.9493 20.1915C24.9388 20.1907 24.9284 20.1935 24.9197 20.1995C24.9111 20.2055 24.9048 20.2143 24.9019 20.2244L24.7656 20.6845C24.7636 20.691 24.7632 20.698 24.7642 20.7047C24.7653 20.7115 24.7679 20.718 24.7718 20.7236C24.7756 20.7293 24.7807 20.734 24.7867 20.7375C24.7926 20.7409 24.7993 20.743 24.8061 20.7435L32.5406 21.3565Z" fill="#E6E6E6"/>
<path d="M32.1265 23.0635C32.1374 23.0644 32.1483 23.0614 32.1572 23.055C32.166 23.0486 32.1723 23.0392 32.175 23.0286L32.3061 22.4962C32.3077 22.4897 32.3079 22.4829 32.3066 22.4763C32.3053 22.4697 32.3025 22.4634 32.2986 22.458C32.2946 22.4526 32.2895 22.4481 32.2836 22.4448C32.2777 22.4415 32.2712 22.4396 32.2645 22.4391L24.5353 21.8986C24.5248 21.8977 24.5143 21.9006 24.5057 21.9066C24.497 21.9125 24.4907 21.9213 24.4878 21.9315L24.3515 22.3915C24.3496 22.3981 24.3491 22.405 24.3502 22.4118C24.3512 22.4186 24.3538 22.425 24.3577 22.4307C24.3616 22.4363 24.3667 22.4411 24.3726 22.4445C24.3786 22.4479 24.3852 22.45 24.392 22.4505L32.1265 23.0635Z" fill="#E6E6E6"/>
<path d="M28.568 25.9893C28.579 25.9904 28.59 25.9875 28.599 25.9811C28.6081 25.9747 28.6145 25.9653 28.617 25.9545L28.8944 24.8452C28.896 24.8387 28.8962 24.832 28.8949 24.8254C28.8937 24.8188 28.891 24.8126 28.8871 24.8072C28.8833 24.8017 28.8782 24.7972 28.8724 24.7939C28.8666 24.7906 28.8601 24.7886 28.8535 24.788L24.1069 24.3888C24.0958 24.388 24.0848 24.3912 24.0758 24.3978C24.0669 24.4044 24.0606 24.4139 24.058 24.4247L23.8214 25.4894C23.82 25.4957 23.8199 25.5024 23.8213 25.5088C23.8226 25.5152 23.8253 25.5212 23.8292 25.5265C23.833 25.5318 23.8379 25.5362 23.8436 25.5394C23.8493 25.5427 23.8556 25.5447 23.8621 25.5453L28.568 25.9893Z" fill="#6C63FF"/>
</g>
<defs>
<clipPath id="clip0">
<rect width="39.9316" height="30" fill="white"/>
</clipPath>
</defs>
</svg>

<svg width="40" height="30" fill="none" xmlns="http://www.w3.org/2000/svg"><g clip-path="url(#a)"><path d="M18.725 29.088c0 .459-4.197.508-9.362.83-5.161.323-9.363-.371-9.363-.83 0-.458 4.221-1.38 9.363-.83 5.165.554 9.362.372 9.362.83Z" fill="#E6E6E6"/><path d="M38.467 0H27.369a2.359 2.359 0 0 0-2.3 1.84L19.46 26.712a1.907 1.907 0 0 0 1.766 2.323l11.408.563a2.52 2.52 0 0 0 2.603-2.068l3.18-17.584.237.067.609-3.333-.244-.06.888-4.909A1.454 1.454 0 0 0 38.467 0Z" fill="#3F3D56"/><path d="M28.83.535h-1.295a1.63 1.63 0 0 0-1.592 1.283L20.56 26.487a1.01 1.01 0 0 0 .921 1.223l11.372.745a1.309 1.309 0 0 0 1.373-1.073l4.592-25.498A1.146 1.146 0 0 0 37.691.535h-1.23a.54.54 0 0 0-.521.4.478.478 0 0 1-.462.354h-5.834a.816.816 0 0 1-.813-.754Z" fill="#fff"/><path d="m16.658 13.225 1.003 1.985 2.998 1.363c.32.54 1.337.582 1.411.232.083-.392-1.235-1.024-1.235-1.024l-2.508-1.696-.22-1.46-1.449.6ZM16.777 26.545l-.185 1.48 1.072.073.111-1.553h-.998Z" fill="#A0616A"/><path d="M16.925 27.802a2.9 2.9 0 0 1-.264-.324c-.154-.212-.29.879-.29.879s-.148.444-.111.665c.037.222.887.222 1.035.185.148-.037.888 0 .888 0h1.11c.96-.443 0-.74 0-.74-.297-.036-1.295-.96-1.295-.96l-.222-.408c-.148-.037-.296.518-.296.518l-.555.185Z" fill="#2F2E41"/><path d="m14.003 26.563-.185 1.479 1.073.074.11-1.553h-.998Z" fill="#A0616A"/><path d="M14.152 27.822a2.91 2.91 0 0 1-.265-.324c-.153-.213-.29.878-.29.878s-.148.407-.11.629c.036.222.887.222 1.035.185.148-.037.887.037.887.037h1.11c.961-.444 0-.74 0-.74-.296-.037-1.294-.961-1.294-.961l-.222-.407c-.148-.037-.296.518-.296.518l-.555.185ZM15.223 17.024c-.147.184-.074.813-.074.813s-.258 2.034-.147 2.219c.11.185-.074.333-.185.592-.111.259-.222.887-.222.887-.629.518-.592 2.885-.592 2.885l-.222 2.108c.074.222 1.11.259 1.258.222.148-.037.591-3.366.591-3.366l.999-1.886s-.074 5.03-.074 5.252c0 .221.998.11 1.22.11.222 0 .222-3.698.222-3.698l.222-.961 1.183-4.4v-.518l-.185-.26s-3.846-.184-3.993 0Z" fill="#2F2E41"/><path d="M16.852 8.629a1.146 1.146 0 1 0 0-2.293 1.146 1.146 0 0 0 0 2.293Z" fill="#A0616A"/><path d="M17.424 8.02c-.232.517-.094 1.24.37 2.034l-1.886-.888.296-.259-.074-.74 1.294-.147Z" fill="#A0616A"/><path d="M17.423 9.202c.247.147.395.417.48.691a6.55 6.55 0 0 1 .281 1.565l.09 1.59 1.11 4.216c-.962.814-1.517.629-2.811-.037s-1.442.222-1.442.222-.111-.037 0-.148c.11-.111 0 0-.111-.111s0 0 .037-.111c.037-.11 0-.037-.037-.074s.148-.37.148-.37l-.296-2.773-.37-3.92c.444-.555 1.701-1.036 1.701-1.036l1.146.814c.37.148.074-.444.074-.444v-.074Z" fill="#6C63FF"/><path d="m13.892 12.29-.148 2.218 1.886 2.7c0 .628.333.776.333.776a4.89 4.89 0 0 0 .333-.629c.185-.406-.111-.74-.111-.74L14.89 13.88l.554-1.368-1.553-.222Z" fill="#A0616A"/><path d="M14.52 9.96c-.628.221-.739 2.625-.739 2.625.74-.407 1.627.259 1.627.259s.185-.63.407-1.443a1.414 1.414 0 0 0-.296-1.331s-.37-.333-.998-.11Z" fill="#6C63FF"/><path d="M15.797 7.833c.146-.116.345.096.345.096l.116-1.05s.73.087 1.197-.03c.467-.117.54.423.54.423.024-.218.03-.438.015-.657-.03-.262-.409-.525-1.08-.7-.672-.175-1.022.584-1.022.584-.467.233-.257 1.451-.111 1.334Z" fill="#2F2E41"/><path d="M35.283 17.782a.093.093 0 0 0 .095-.075l2.55-13.879a.092.092 0 0 0-.09-.109l-11.6-.135h-.001a.093.093 0 0 0-.09.072L23.14 17.084a.092.092 0 0 0 .085.112l12.057.586ZM25.188 18.668a.046.046 0 0 0-.044.036l-.108.459a.046.046 0 0 0 .023.05.047.047 0 0 0 .019.006l6.053.43a.047.047 0 0 0 .048-.037l.103-.531a.046.046 0 0 0-.024-.05.047.047 0 0 0-.018-.005l-6.049-.358h-.003ZM32.54 21.357a.046.046 0 0 0 .049-.035l.131-.533a.047.047 0 0 0-.041-.057l-7.73-.54a.046.046 0 0 0-.047.032l-.136.46a.046.046 0 0 0 .04.06l7.735.613ZM32.127 23.064a.046.046 0 0 0 .048-.035l.131-.533a.046.046 0 0 0-.041-.057l-7.73-.54a.045.045 0 0 0-.03.008.045.045 0 0 0-.017.024l-.136.46a.046.046 0 0 0 .02.054.046.046 0 0 0 .02.006l7.735.613Z" fill="#E6E6E6"/><path d="M28.568 25.99a.046.046 0 0 0 .049-.035l.277-1.11a.046.046 0 0 0-.007-.038.047.047 0 0 0-.034-.02l-4.746-.398a.047.047 0 0 0-.049.036l-.237 1.064a.045.045 0 0 0 .008.037c.004.006.009.01.015.013a.045.045 0 0 0 .018.006l4.706.444Z" fill="#6C63FF"/></g><defs><clipPath id="a"><path fill="#fff" d="M0 0h39.932v30H0z"/></clipPath></defs></svg>
